app/img/icons/phone.svg

<svg width="16" height="17" viewBox="0 0 16 17" fill="none" xmlns="http://www.w3.org/2000/svg">
<path d="M12.8766 11.1894C12.0195 11.1894 11.1779 11.0553 10.3804 10.7918C9.98958 10.6585 9.50917 10.7808 9.27066 11.0257L7.6965 12.2141C5.87092 11.2396 4.7464 10.1154 3.78521 8.30354L4.93857 6.77039C5.23822 6.47114 5.3457 6.03401 5.21693 5.62385C4.95224 4.82213 4.81779 3.98093 4.81779 3.12343C4.81782 2.50396 4.31386 2 3.69443 2H1.12339C0.503964 2 0 2.50396 0 3.12339C0 10.2237 5.77638 16 12.8766 16C13.4961 16 14 15.496 14 14.8766V12.3127C14 11.6934 13.496 11.1894 12.8766 11.1894Z" fill="#202020"/>
</svg>

<svg width="16" height="17" fill="none" xmlns="http://www.w3.org/2000/svg"><path d="M12.877 11.19a7.95 7.95 0 01-2.497-.398c-.39-.133-.87-.011-1.11.234l-1.573 1.188c-1.826-.974-2.95-2.099-3.912-3.91L4.94 6.77c.3-.299.407-.736.278-1.146a7.96 7.96 0 01-.4-2.5C4.818 2.503 4.315 2 3.695 2h-2.57C.503 2 0 2.504 0 3.123 0 10.223 5.776 16 12.877 16c.62 0 1.123-.504 1.123-1.123v-2.564c0-.62-.504-1.124-1.123-1.124z" fill="#202020"/></svg>
